X: 1
T:Glengesh Hornpipe, The
T:Dr Peter's Hornpipe
S:Ted Hastings <ted@HASTINGS.NU> irtrad-l 2001-6-12
M:C|
L:1/8
R:Hornpipe
B:Northern Fiddler, P194
K:D
{cd}cB \
| A<D [FA]A BG(3Bcd | A<D [FA]Ad2 cd | e<A [ce]e fd (3fga | edcB AGFG |
| A<D [FA]A BG(3Bcd | A<D [FA]Ad2 cd | e<A [ce]e faec | d2 f2 d2 :|
|: cd \
| e<A [ce]e fd (3fga | e<A ce f2 f=f | ea^gf edcB | (3ABA =GB A2 G2 |
| {FG}FEFA dfaf | g2 b2 b2 ag | (3faf df (3efe ce | dfec d2 :|
